X:1
T:VALSE
T:Valse
T:Op. 64 No. 2
T:to Madame the Baroness Nathaniel de Rothschild
C:Op. 64 Nr2
%%score { ( 1 3 ) | ( 2 4 ) }
L:1/8
Q:1/4=110
M:3/4
K:E
V:1 treble nm="Grand Piano" snm="Pno."
V:3 treble 
V:2 bass 
V:4 bass 
V:1
"^Tempo giusto"!mp! (!2!G2- |!>(! !5![Ge]6 | !1!!4![^^Fd]6)!>)! | %3
 z!<(! (!2!!3![FG]{/!5!B}!2!!4![FA]z/!2!!3![FG]/ !1!!5![Fd]2)!<)! | %4
 z!<(! (!2!!3![FG]{/!5!B}!2!!4![FA]z/!2!!3![FG]/ !1!!5![Fc]2)!<)! |!>(! ((!1!!5![Ec]6 | %6
 !2!!5![D^B]6))!>)! | z!<(! (!1!!2![=DE]{/!4!G}!1!!3![DF]z/!1!!2![DE]/ !1!!5![DB]2)!<)! | %8
 z!<(! (!1!!2![=DE]{/!5!G}!1!!4![CF]z/!1!!2![DE]/ !1!!5![CA]2)!<)! | (!4!A4 G2-) | %10
!<(! G(!4!G!3!GA!3!A^A!<)! | !5!c4 !4!B2-) |!<(! B(!3!B!2!Bc!2!c^^c | !2!^^cd!1!d!4!g!<)!!3!g^^f | %14
!>(! !3!^^f^f!3!f^e!3!e=e | !3!e!2!d!3!d!2!^^c!3!c!2!^c | !3!c!2!^B!3!B!1!=B!4!B(!1!A)!>)! | %17
!>(! (!2!!5![Ge]6) | !1!!4![^^Fd]6)!>)! | z!<(! (!2!!3![FG]{/B}[FA]z/[FG]/ [Fd]2)!<)! | %20
 z!<(! (!2!!3![FG]{/B}[FA]z/[FG]/ [Fc]2)!<)! |!>(! ((!1!!5![Ec]6 | !2!!5![D^B]6))!>)! | %23
 z!<(! (!1!!2![=DE]{/G}[DF]z/[DE]/ [DB]2)!<)! | z!<(! (!1!!2![=DE]{/G}[CF]z/[CE]/ [CA]2)!<)! | %25
 (!4!A4 G2-) |!<(! G(!4!^A!3!AB!3!B^B!<)! | d4 !4!c2-) |!<(! (c!2!F!3!FG!3!GA!<)! | c4 !4!B2-) | %30
 (B!4!AGP!243!FE!3!F | ^^FG!1!G,!3!E!4!ED | C2) z2 (!1!G2 | %33
[Q:1/4=120]"^Piu mosso"!>(! !4!gagfdG)!>)! |!>(! (!4!fgfecG)!>)! |!>(! (!4!efed^BF)!>)! | %36
!>(! (!4!dedcAE)!>)! |!>(! (!4!cdcAD!5!c)!>)! |!>(! (!4!cdcGC!4!G)!>)! | !>!!5!G(G,!<(!D!4!GA!3!G | %40
 !1!^^FG!3!^B!4!c!1!e!3!^f!<)! |!>(! !4!gagfdG)!>)! |!>(! (!4!fgfecG)!>)! |!>(! (!4!efed^BF)!>)! | %44
!>(! (!4!dedcAE)!>)! |!>(! (!2!ABc!1!=def | !1!=g^g!1!abc'=d' |!8va(! d'!1!e'^e'f'!1!^^f'g' | %48
 .!4!c''2)!>)!!8va)! z2 (!1!G2 |!pp! !4!gagfdG | !4!fgfecG | !4!efed^BF | !4!dedcAE | !4!cdcADc | %54
 !4!cdcGC)G | (!4!GG,D!4!GA!3!G | !1!^^FG!3!^B!4!c!1!e!3!^f | !4!gagfdG | !4!fgfecG | !4!efed^BF | %60
 !4!dedcAE |!>(! !2!ABc!1!=def | !1!=g^g!1!abc'=d' |!8va(! ^d'!1!e'^e'f'!1!^^f'g' | %64
 .c''2)!>)!!8va)! z2 ||[K:Gb][Q:1/4=100]"^Piu lento"!mp! (!1!F2 |!>(! !4!f6 | !5!f4 !4!e2- | %68
 !5!e4!>)! d2 | c2 !2!B2 !1!F2 | !3!G2) z2 z2 | (!5!g4 f2- | f2 e3 d | cd!5!fec!2!B | %74
 A2) z2!>(! (!3!a2- | a2 g2 f2 | !2!f2 e2!>)! !5!d'2- | d'4 !4!d'2- | d'2 c'3 b | %79
 !5!c'2 !4!b2 !3!__b2 | !2!a2 =g2 !4!_g2 | fcP!243!dc!4!dB | A2) z2 (!5!f2- | f4 !4!e2- | %84
 !5!e2 d2 =A2) | (8:6:8(!5!cBEFG!1!F!5!B=A |!<(! (3_A=G_G g)!<)! z z2 | z2 z2 (!4!f2- | f2 e2 d2 | %89
{cde} d2 c!3!eBc | A2) z2!>(! (!3!a2- | a2 g3 !1!f | !2!f2!>)!!<(! e2 d'2- | d'4!<)! !4!d'2- | %94
 d'2 !5!c'2 b2 | a2 !1!=g2 !3!_g2 | !1!_f2 !3!e2!>(! !2!d2 | !1!c!3!ded_f!1!=G!>)! || %98
[K:E] !2!G)!mp!(!5!agfdG) |!>(! (!4!fgfecG)!>)! |!>(! (!4!efed^BF)!>)! |!>(! (!4!dedcAE)!>)! | %102
!>(! (!4!cdcADc)!>)! |!>(! (!4!cdcGCG)!>)! | !>!!4!G(G,!<(!DG!5!AG | %105
 !1!^^FG!3!^B!4!c!1!e!3!^f!<)! |!>(! !4!gagfdG)!>)! |!>(! (!4!fgfecG)!>)! |!>(! (!4!efed^BF)!>)! | %109
!>(! (!4!dedcAE)!>)! |!>(! (!2!ABc!1!=def | !1!=g^g!1!abc'=d' |!8va(! ^d'!1!e'^e'f'!1!^^f'g' | %113
 .c''2)!>)!!8va)! z2 (!1!G2 |!pp! !4!gagfdG | !4!fgfecG | efed^BF | dedcAE | cdcADA | cdcGCG) | %120
 (GG,DGAG | !1!^^FG!3!^B!4!c!1!e!3!^f | !4!gagfdG | fgfecG | efed^BF | dedcAE |!>(! !2!ABc!1!=def | %127
 !1!=g^g!1!abc'=d' |!8va(! ^d'!1!e'^e'f'!1!^^f'g' | .c''2)!>)!!8va)! z2 (!2!G2- | %130
[Q:1/4=110]"^Tempo I"!p! !2!!5![Ge]6 | !1!!4![^^Fd]6) | z (!2!!3![FG]{/B}[FA]z/[FG]/ [Fd]2) | %133
 z (!2!!3![FG]{/B}[FA]z/[FG]/ [Ec]2) | ((!1!!5![Ec]6 | !2!!5![D^B]6)) | %136
 z (!1!!2![=DE]{/G}[DF]z/[DE]/ [DB]2) | z (!1!!2![=DE]{/G}[CF]z/[CE]/ [CA]2) | (!4!A4 G2-) | %139
 G(!4!G!3!GA!3!A^A | !5!c4 !4!B2-) | B(!3!B!2!Bc!2!c^^c | !2!^^cd!1!d!4!g!3!g^^f | %143
 !3!^^f^f!3!f^e!3!e=e | edd^^cc^c | c^B!3!B!1!=B(!4!B!1!A | !2!!5![Ge]6) | !1!!4![^^Fd]6) | %148
 z (!2!!3![FG]{/B}[FA]z/[FG]/ [Fd]2) | z (!2!!3![FG]{/B}[FA]z/[FG]/ [Ec]2) | ((!1!!5![Ec]6 | %151
 !2!!5![D^B]6)) | z (!1!!2![=DE]{/G}[DF]z/[DE]/ [DB]2) | z (!1!!2![=DE]{/G}[CF]z/[CE]/ [CA]2) | %154
 (!4!A4 G2-) | (G!4!^AAB!3!B^B | d4 (!45!c2) | (c)!2!F!3!FG!3!GA | c4 !45!B2-) | (B!4!AGPFEF | %160
 ^^FG!1!G,!3!E!3!ED | C2) z2 (G2 |!>(! !4!gagfdG)!>)! |!>(! (fgfecG)!>)! |!>(! (efed^BF)!>)! | %165
!>(! (dedcAE)!>)! |!>(! (cdcADc)!>)! |!>(! (cdcGCG)!>)! | !>!G(!1!G,!<(!DG!5!AG | %169
 !1!^^FG!3!^B!4!c!1!e!3!^f!<)! |!>(! !4!gagfdG)!>)! |!>(! (fgfecG)!>)! |!>(! (efed^BF)!>)! | %173
!>(! (dedcAE)!>)! |!>(! (!2!ABc!1!=def | !1!=g^g!1!abc'=d' |!8va(! d'!1!e'^e'f'!1!^^f'g' | %177
 .c''2)!>)!!8va)! z2 (!1!G2 |!pp! !4!gagfdG | fgfecG | efed^BF | dedcAE | cdcADc | cdcGC)G | %184
 (G!1!G,DG!5!AG | !1!^^FG^Bc!1!e^f | !4!gagfdG | fgfecG | efed^BF | dedcAE |!>(! !2!ABc!1!=def | %191
 !1!=g^g!1!abc'=d' |!8va(! ^d'!1!e'^e'f'!1!^^f'g' | .c''2)!>)!!8va)! z2 z2 |] %194
V:2
 z2 |!ped! C,,2 [G,CE]2 [G,CE]2!ped-up! |!ped! D,,2 [D,^A,C]2 [D,A,C]2!ped-up! | %3
!ped! G,,2 [D,G,^B,]2 [D,G,B,]2!ped-up! |!ped! C,2 ([G,D]2 [G,C]2)!ped-up! | %5
!ped! E,,2 [E,A,]2 [E,A,]2!ped-up! |!ped! E,,2 [F,A,]2 [F,A,]2!ped-up! | %7
!ped! E,,2 G,2 [E,G,]2!ped-up! |!ped! A,,2 [E,A,]2 [^D,A,]2!ped-up! | %9
!ped! G,,2 [G,D]2 [G,D]2!ped-up! |!ped! x2 C4!ped-up! |!ped! B,,2 [B,F]2 [B,F]2!ped-up! | %12
 z2 [B,E]2 [^A,E]2 |!ped! D,2[K:treble] [B,DGB]2 z2!ped-up! | %14
[K:bass]!ped! D,,2 [C^^F]2 z2!ped-up! |!ped! G,,2 [^B,^F]2!ped-up! z2 | z6 | %17
!ped! C,2 [G,CE]2 [G,CE]2!ped-up! |!ped! z2 [^A,C]2 [A,C]2!ped-up! | %19
!ped! G,,2 [D,G,^B,]2 [D,G,B,]2!ped-up! |!ped! C,2 ([G,D]2 [G,C]2)!ped-up! | %21
!ped! E,,2 [E,A,]2 [E,A,]2!ped-up! |!ped! E,,2 [F,A,]2 [F,A,]2!ped-up! | %23
!ped! E,,2 G,2 [E,G,]2!ped-up! |!ped! A,,2 [E,A,]2 [^D,A,]2!ped-up! | %25
!ped! G,,2 [G,D]2 [G,D]2!ped-up! |!ped! C,2 [G,B,C]2 [G,B,C]2!ped-up! | %27
!ped! F,,2 [^A,F]2 [A,F]2!ped-up! |!ped! B,,2 [=A,B,]2 [A,B,]2!ped-up! | %29
!ped! (E,,2 [B,,G,]2 ^E,,2!ped-up! |!ped! F,,2 [D,A,]2)!ped-up! z2 | %31
!ped! G,,2 [E,C]2 [F,^B,]2!ped-up! |!ped! C,,2 [G,E]2!ped-up! z2 | %33
!ped! ^B,,2 [G,D]2 [G,D]2!ped-up! |!ped! C,2 [G,E]2 [G,E]2!ped-up! | %35
"_(ped. simile)"!ped! G,,2 [F,^B,]2 [F,B,]2!ped-up! |!ped! A,,2 [E,C]2 [E,C]2!ped-up! | %37
!ped! F,,2 [F,C]2 z2!ped-up! |!ped! G,,2 [E,G,]2 z2!ped-up! |!ped! G,,,2 z2 [F,^B,]2!ped-up! | %40
!ped! C,2 [G,E]2 [G,E]2!ped-up! |!ped! ^B,,2 [G,D]2 [G,D]2!ped-up! | %42
!ped! C,2 [G,CE]2 [G,CE]2!ped-up! |!ped! G,,2 [F,^B,]2 [F,B,]2!ped-up! | A,,2 [E,C]2 [E,C]2 | %45
!ped! F,,2 z2 [A,=DA]2!ped-up! | z6 |!ped! G,,2 [G,^B,F]2 [G,B,F]2!ped-up! | %48
!ped! C,2 [G,E]2 z2!ped-up! |!ped! ^B,,2 [G,D]2 [G,D]2!ped-up! |!ped! C,2 [G,E]2 [G,E]2!ped-up! | %51
"_(ped. simile)"!ped! G,,2 [F,^B,]2 [F,B,]2!ped-up! |!ped! A,,2 [E,C]2 [E,C]2!ped-up! | %53
!ped! F,,2 [F,C]2 z2!ped-up! |!ped! G,,2 [E,G,]2 z2!ped-up! |!ped! G,,,2 z2 [F,^B,]2!ped-up! | %56
!ped! C,2 [G,E]2 [G,E]2!ped-up! |!ped! ^B,,2 [G,D]2 [G,D]2!ped-up! | %58
!ped! C,2 [G,E]2 [G,E]2!ped-up! |!ped! G,,2 [F,^B,]2 [F,B,]2!ped-up! | A,,2 [E,C]2 z2 | %61
!ped! F,,2 z2 [A,=DA]2!ped-up! | z6 |!ped! G,,2 [G,^B,F]2 [G,B,F]2!ped-up! | %64
!ped! C,2 [G,CE]2!ped-up! ||[K:Gb] z2 |!ped! D,,2 [A,DF]2 [A,DF]2- | %67
 [A,DF]2 [A,DF]2 [=A,-DF]2!ped-up! | [D,A,]2 [B,F]2 [B,F-]2 | F2 (D,2 =D,2 | %70
!ped! [E,B,]2) (B,2 [B,G]2-) | [B,G]2 [B,G]2 [=B,-G]2!ped-up! | [E,=B,]2 [CG]2 [CG]2- | %73
!ped! G2 (E,2 =E,2!ped-up! | C2) [CA]2 [CA]2 |!ped! F,2 [B,=DA]2 [B,DA]2!ped-up! | %76
!ped! G,2[K:treble] [B,EG]2 [B,EB]2-!ped-up! | [B,EB]2 [B,EB]2 [B,EB]2 | %78
[K:bass]!ped! =G,2[K:treble] [=DEB]2 [DEB]2!ped-up! |!ped! A,2 [Fd]2!ped-up! z2 | %80
[K:bass]!ped! A,,2 z2 [A,CG]2!ped-up! | D,2 [A,DF]2 [=G,D=E]2 |!ped! D,,2 [A,F]2 [A,F]2!ped-up! | %83
!ped! D,2 [A,F]2 [=A,-F]2!ped-up! | [D,A,]2 [B,F]2 [B,-F]2 | B,6- | B,2!ped! B,2 [B,G]2 | %87
 [E,B,]2 [B,G]2!ped-up! [=B,-G]2 | [E,B,]2 [CG]2 [CG]2- | G2!<(! (E,2 =E,2!<)! | %90
 [F,C]2) [CA]2 [CA]2 |!ped! F,2[K:treble] [B,=DA]2 [B,DA]2!ped-up! | %92
!ped! G,2 [B,EG]2 [B,EB]2!ped-up! |!ped! =G,2 [D=EB]2 B,2 | [=E=Gd]2 D2 .[GB=e]2!ped-up! | z6 | %96
 z6 | z6 ||[K:E][K:bass]!ped! ^B,,2 [G,D]2 [G,D]2!ped-up! |!ped! C,2 [G,E]2 [G,E]2!ped-up! | %100
"_(ped. simile)"!ped! G,,2 [F,^B,]2 [F,B,]2!ped-up! |!ped! A,,2 [E,C]2 [E,C]2!ped-up! | %102
!ped! F,,2 [F,C]2 z2!ped-up! |!ped! G,,2 [E,G,]2 z2!ped-up! |!ped! G,,,2 z2 [F,^B,]2!ped-up! | %105
!ped! C,2 [G,E]2 [G,E]2!ped-up! |!ped! ^B,,2 [G,D]2 [G,D]2!ped-up! | %107
!ped! C,2 [G,CE]2 [G,CE]2!ped-up! | G,,2 [F,^B,]2 [F,B,]2 | A,,2 [E,C]2 [E,C]2 | %110
!ped! F,,2 z2 [A,=DA]2!ped-up! | z6 |!ped! G,,2 [G,^B,F]2 [G,B,F]2!ped-up! | %113
!ped! C,2 [G,E]2!ped-up! z2 |!ped! ^B,,2 [G,D]2 [G,D]2!ped-up! |!ped! C,2 [G,E]2 [G,E]2!ped-up! | %116
"_(ped. simile)"!ped! G,,2 [F,^B,]2 [F,B,]2!ped-up! |!ped! A,,2 [E,C]2 [E,C]2!ped-up! | %118
!ped! F,,2 [F,C]2 [F,C]2!ped-up! |!ped! G,,2 [E,G,]2 z2!ped-up! |!ped! G,,,2 z2 [F,^B,]2!ped-up! | %121
!ped! C,2 [G,E]2 [G,E]2!ped-up! |!ped! ^B,,2 [G,D]2 [G,D]2!ped-up! | %123
!ped! F,,2 [G,E]2 [G,E]2!ped-up! | G,,2 [F,^B,]2 [F,B,]2 |!ped! A,,2 [E,C]2 z2!ped-up! | %126
!ped! F,2 z2 [A,=DA]2!ped-up! | z6 |!ped! G,,2 [G,^B,F]2 [G,B,F]2!ped-up! | %129
!ped! C,2 [G,E]2!ped-up! z2 |!ped! C,,2 [G,CE]2 [G,CE]2!ped-up! | %131
!ped! D,,2 [D,^A,C]2 [D,A,C]2!ped-up! |!ped! G,,2 [D,G,^B,]2 [D,G,B,]2!ped-up! | %133
!ped! C,2 ([G,D]2 [G,C]2)!ped-up! |!ped! E,,2 [E,A,]2 [E,A,]2!ped-up! | %135
!ped! E,,2 [F,A,]2 [F,A,]2!ped-up! |!ped! E,,2 G,2 [E,G,]2!ped-up! | %137
!ped! A,,2 [E,A,]2 [^D,A,]2!ped-up! |!ped! G,,2 [G,D]2 [G,D]2!ped-up! |!ped! x2 C4!ped-up! | %140
!ped! B,,2 [B,F]2 [B,F]2!ped-up! | z2 [B,E]2 [^A,E]2 |!ped! D,2[K:treble] [B,DGB]2 z2!ped-up! | %143
[K:bass]!ped! D,,2 [C^^F]2 z2!ped-up! |!ped! G,,2 [^B,^F]2!ped-up! z2 | z6 | %146
!ped! C,2 [G,CE]2 [G,CE]2!ped-up! |!ped! z2 [^A,C]2 [A,C]2!ped-up! | %148
!ped! G,,2 [D,G,^B,]2 [D,G,B,]2!ped-up! |!ped! C,2 ([G,D]2 [G,C]2)!ped-up! | %150
!ped! E,,2 [E,A,]2 [E,A,]2!ped-up! |!ped! E,,2 [F,A,]2 [F,A,]2!ped-up! | %152
!ped! E,,2 G,2 [E,G,]2!ped-up! |!ped! A,,2 [E,A,]2 [^D,A,]2!ped-up! | %154
!ped! G,,2 [G,D]2 [G,D]2!ped-up! |!ped! C,2 [G,B,C]2 [G,B,C]2!ped-up! | %156
!ped! F,,2 [^A,F]2 [A,F]2!ped-up! |!ped! B,,2 [=A,B,]2 [A,B,]2!ped-up! | %158
!ped! (E,,2 [B,,G,]2 ^E,,2!ped-up! |!ped! F,,2 [D,A,]2)!ped-up! z2 | %160
!ped! G,,2 [E,C]2 [F,^B,]2!ped-up! |!ped! C,,2 [G,E]2!ped-up! z2 | %162
!ped! ^B,,2 [G,D]2 [G,D]2!ped-up! |!ped! C,2 [G,E]2 [G,E]2!ped-up! | %164
"_(ped. simile)"!ped! G,,2 [F,^B,]2 [F,B,]2!ped-up! |!ped! A,,2 [E,C]2 [E,C]2!ped-up! | %166
!ped! F,,2 [F,C]2 z2!ped-up! |!ped! G,,2 [E,G,]2 z2!ped-up! |!ped! G,,,2 z2 [F,^B,]2!ped-up! | %169
!ped! C,2 [G,E]2 [G,E]2!ped-up! |!ped! ^B,,2 [G,D]2 [G,D]2!ped-up! | %171
!ped! C,2 [G,CE]2 [G,CE]2!ped-up! |!ped! G,,2 [F,^B,]2 [F,B,]2!ped-up! | A,,2 [E,C]2 [E,C]2 | %174
!ped! F,,2 z2 [A,=DA]2!ped-up! | z6 |!ped! G,,2 [G,^B,F]2 [G,B,F]2!ped-up! | %177
!ped! C,2 [G,E]2 z2!ped-up! |!ped! ^B,,2 [G,D]2 [G,D]2!ped-up! |!ped! C,2 [G,E]2 [G,E]2!ped-up! | %180
"_(ped. simile)"!ped! G,,2 [F,^B,]2 [F,B,]2!ped-up! |!ped! A,,2 [E,C]2 [E,C]2!ped-up! | %182
!ped! F,,2 [F,C]2 z2!ped-up! |!ped! G,,2 [E,G,]2 z2!ped-up! |!ped! G,,,2 z2 [F,^B,]2!ped-up! | %185
!ped! C,2 [G,E]2 [G,E]2!ped-up! |!ped! ^B,,2 [G,D]2 [G,D]2!ped-up! | %187
!ped! C,2 [G,E]2 [G,E]2!ped-up! |!ped! G,,2 [F,^B,]2 [F,B,]2!ped-up! | A,,2 [E,C]2 z2 | %190
!ped! F,,2 z2 [A,=DA]2!ped-up! | z6 |!ped! G,,2 [G,^B,F]2 [G,B,F]2!ped-up! | %193
!ped! z2 [G,E]2!ped-up! z2 |] %194
V:3
 x2 | x6 | x6 | x6 | x6 | x6 | x6 | x6 | x6 | [^B,F]6 | E6 | !1!!3![D=A]6 | !1!G4 G2 | x6 | x6 | %15
 x6 | x6 | x6 | x6 | x6 | x6 | x6 | x6 | x6 | x6 | [^B,F]6 | ^E6 | =E6 | D6 | =D6 | C6 | x6 | x6 | %33
 x6 | x6 | x6 | x6 | x6 | x6 | x6 | x6 | x6 | x6 | x6 | x6 | x6 | x6 |!8va(! x6 | x2!8va)! x4 | %49
 x6 | x6 | x6 | x6 | x6 | x6 | x6 | x6 | x6 | x6 | x6 | x6 | x6 | x6 |!8va(! x6 | x2!8va)! x2 || %65
[K:Gb] x2 | x6 | x6 | x6 | x6 | x6 | x6 | x6 | x6 | x6 | x6 | x6 | x6 | x6 | x6 | x6 | x6 | x6 | %83
 x6 | x6 | x6 | x6 | x6 | x6 | x6 | x6 | x6 | x6 | x6 | x6 | x6 | x6 | x6 ||[K:E] x6 | x6 | x6 | %101
 x6 | x6 | x6 | x6 | x6 | x6 | x6 | x6 | x6 | x6 | x6 |!8va(! x6 | x2!8va)! x4 | x6 | x6 | x6 | %117
 x6 | x6 | x6 | x6 | x6 | x6 | x6 | x6 | x6 | x6 | x6 |!8va(! x6 | x2!8va)! x4 | x6 | x6 | x6 | %133
 x6 | x6 | x6 | x6 | x6 | [^B,F]6 | E6 | !1!!3![D=A]6 | G4 G2 | x6 | x6 | x6 | x6 | x6 | x6 | x6 | %149
 x6 | x6 | x6 | x6 | x6 | [^B,F]6 | ^E6 | =E6 | D6 | =D6 | C6 | x4 !5!G2- | G4 x2 | x6 | x6 | x6 | %165
 x6 | x6 | x6 | x6 | x6 | x6 | x6 | x6 | x6 | x6 | x6 |!8va(! x6 | x2!8va)! x4 | x6 | x6 | x6 | %181
 x6 | x6 | x6 | x6 | x6 | x6 | x6 | x6 | x6 | x6 | x6 |!8va(! x6 | x2!8va)! x4 |] %194
V:4
 x2 | x6 | x6 | x6 | x6 | x6 | x6 | x6 | x6 | x6 | C,2 G,2 F,2 | x6 | E,6 | x2[K:treble] x4 | %14
[K:bass] x6 | x6 | x6 | x6 | D,6 | x6 | x6 | x6 | x6 | x6 | x6 | x6 | x6 | x6 | x6 | x6 | x6 | x6 | %32
 x6 | x6 | x6 | x6 | x6 | x6 | x6 | x6 | x6 | x6 | x6 | x6 | x6 | x6 | x6 | x6 | x6 | x6 | x6 | %51
 x6 | x6 | x6 | x6 | x6 | x6 | x6 | x6 | x6 | x6 | x6 | x6 | x6 | x4 ||[K:Gb] x2 | x6 | x6 | x6 | %69
 B,6- | x6 | x6 | x6 | C6- | F,4 x2 | x6 | x2[K:treble] x4 | x6 |[K:bass] x2[K:treble] x4 | x6 | %80
[K:bass] x6 | x6 | x6 | x6 | x6 | z2 (D,2 =D,2 | E,2) x4 | x6 | x6 | C6- | x6 | x2[K:treble] x4 | %92
 x6 | x6 | x6 | x6 | x6 | x6 ||[K:E][K:bass] x6 | x6 | x6 | x6 | x6 | x6 | x6 | x6 | x6 | x6 | x6 | %109
 x6 | x6 | x6 | x6 | x6 | x6 | x6 | x6 | x6 | x6 | x6 | x6 | x6 | x6 | x6 | x6 | x6 | x6 | x6 | %128
 x6 | x6 | x6 | x6 | x6 | x6 | x6 | x6 | x6 | x6 | x6 | C,2 G,2 F,2 | x6 | E,6 | x2[K:treble] x4 | %143
[K:bass] x6 | x6 | x6 | x6 | D,6 | x6 | x6 | x6 | x6 | x6 | x6 | x6 | x6 | x6 | x6 | x6 | x6 | x6 | %161
 x6 | x6 | x6 | x6 | x6 | x6 | x6 | x6 | x6 | x6 | x6 | x6 | x6 | x6 | x6 | x6 | x6 | x6 | x6 | %180
 x6 | x6 | x6 | x6 | x6 | x6 | x6 | x6 | x6 | x6 | x6 | x6 | x6 | C,4 x2 |] %194

